src/assets/filled/MonitorMobbile.svg

<svg width="24" height="24" viewBox="0 0 24 24"  xmlns="http://www.w3.org/2000/svg">
<path d="M20.99 9.71C20.65 9.57 20.2 9.5 19.64 9.5H14.36C12.62 9.5 12 10.12 12 11.88V19.62C12 20.2 12.07 20.65 12.22 21C12.53 21.72 13.19 22 14.36 22H19.64C21.38 22 22 21.37 22 19.62V11.88C22 10.69 21.72 10.02 20.99 9.71ZM18 19.75H16C15.98 19.75 15.95 19.75 15.93 19.74C15.78 19.73 15.65 19.68 15.54 19.58C15.36 19.45 15.25 19.24 15.25 19C15.25 18.59 15.59 18.25 16 18.25H18C18.41 18.25 18.75 18.59 18.75 19C18.75 19.41 18.41 19.75 18 19.75Z" />
<path d="M20.99 6.19V7C20.99 7.55 20.54 8 19.99 8H14.36C11.8 8 10.5 9.31 10.5 11.88V21C10.5 21.55 10.05 22 9.50001 22H7.55001C7.15001 22 6.83001 21.68 6.83001 21.29C6.83001 20.89 7.15001 20.58 7.55001 20.58H9.50001V16.75H6.00001C3.78001 16.64 2.01001 14.81 2.01001 12.56V6.19C2.01001 3.88 3.89001 2 6.21001 2H16.8C19.11 2 20.99 3.88 20.99 6.19Z" />
</svg>

<?xml version="1.0" encoding="UTF-8"?>
<svg width="24" height="24" viewBox="0 0 24 24" xmlns="http://www.w3.org/2000/svg">
 <path d="m20.99 9.71c-0.34-0.14-0.79-0.21-1.35-0.21h-5.28c-1.74 0-2.36 0.62-2.36 2.38v7.74c0 0.58 0.07 1.03 0.22 1.38 0.31 0.72 0.97 1 2.14 1h5.28c1.74 0 2.36-0.63 2.36-2.38v-7.74c0-1.19-0.28-1.86-1.01-2.17zm-2.99 10.04h-2c-0.02 0-0.05 0-0.07-0.01-0.15-0.01-0.28-0.06-0.39-0.16-0.18-0.13-0.29-0.34-0.29-0.58 0-0.41 0.34-0.75 0.75-0.75h2c0.41 0 0.75 0.34 0.75 0.75s-0.34 0.75-0.75 0.75z"/>
 <path d="m20.99 6.19v0.81c0 0.55-0.45 1-1 1h-5.63c-2.56 0-3.86 1.31-3.86 3.88v9.12c0 0.55-0.45 1-0.99999 1h-1.95c-0.4 0-0.72-0.32-0.72-0.71 0-0.4 0.32-0.71 0.72-0.71h1.95v-3.83h-3.5c-2.22-0.11-3.99-1.94-3.99-4.19v-6.37c0-2.31 1.88-4.19 4.2-4.19h10.59c2.31 0 4.19 1.88 4.19 4.19z"/>
</svg>
